packages/ui-icons/src/Basic/32/Water-tap_32.svg

<svg xmlns="http://www.w3.org/2000/svg" viewBox="0 0 40 40"><path d="M32 20a10 10 0 0 0-10-10h-4V6h4V4H12v2h4v4H8v8h14a2 2 0 0 1 2 2v4h8Zm-2 2h-4v-2a4 4 0 0 0-4-4H10v-4h12a8 8 0 0 1 8 8Zm-2 14a3.92 3.92 0 0 0 2.83-1.21 4.25 4.25 0 0 0 0-5.86L28 26l-2.83 2.93a4.25 4.25 0 0 0 0 5.86A3.92 3.92 0 0 0 28 36Zm-1.44-5.63L28 28.88l1.44 1.49a2.16 2.16 0 0 1 0 3 2 2 0 0 1-2.88 0 2.16 2.16 0 0 1 0-3Z"/></svg>

<svg id="Ready" xmlns="http://www.w3.org/2000/svg" viewBox="0 0 40 40"><title>Megaicons_work_32_1.8_cp</title><path d="M32,20A10,10,0,0,0,22,10H18V6h4V4H12V6h4v4H8v8H22a2,2,0,0,1,2,2v4h8Zm-2,2H26V20a4,4,0,0,0-4-4H10V12H22a8,8,0,0,1,8,8ZM28,36a3.92,3.92,0,0,0,2.83-1.21,4.25,4.25,0,0,0,0-5.86L28,26l-2.83,2.93a4.25,4.25,0,0,0,0,5.86h0A3.92,3.92,0,0,0,28,36Zm-1.44-5.63L28,28.88l1.44,1.49a2.16,2.16,0,0,1,0,3,2,2,0,0,1-2.88,0A2.16,2.16,0,0,1,26.56,30.37Z"/></svg>
